X: 41838
T: Vinegar
R: reel
M: 4/4
K: Dmajor
|:DFAd efed|cdec A2Bc|[M:3/2]cBG2 ABBA FEED|
[M:4/4]DFAd efed|cdec A2Bc|cBG2 ABBA|1 FEED D2AD:|2 FEED D2DA||
|:ABBA d2AB|BAd2 ABBA|[M:3/2]ecBc BAFE EDD2|
[M:4/4]ABBA d2AB|BAd2 ABBA|ecBc BAFE|1 EDD2 D2DA:|2 EDD2 D2AD||

